X: 4004
T: Blacktown
R: jig
M: 6/8
K: Eminor
"Em"~B2G EGE|B2E GFE|"D"A2D FED|FAD F2D|
"Em"EGE B,EG|EB,E G2E|"D"~F3 FED|FED "Em"E3:|
|:"Em"E>GE AEB|E>GE AEB|"C"E>GE AEB|BAG AGF|
"Am"E>GE AEB|E>GE AEB|"C"BAG AGF|"Em"GED E3:|
|:"Em"B2B BAG|"D"FGF FED|"G"~B,2B, B,A,G,|"Am"A,>B,A, A,B,D|
"Em"~E3 EFG|"D"AGF D2F|"C"BAG AGF|"Em"GFD E3:|

